assets/icons/traton/star.svg

<svg xmlns="http://www.w3.org/2000/svg" width="32" height="32" viewBox="0 0 32 32" fill="none">
<path d="M30.0701 13.39L29.4401 11.52L20.5501 10.65L17.0001 2H15.0001L11.4501 10.65L2.56005 11.52L1.93005 13.39L8.68005 19.63L6.68005 28.86L8.33005 30L16.0001 25.21L23.6701 30L25.3001 28.86L23.3001 19.63L30.0701 13.39ZM17.0701 23.52L16.0001 22.85L14.9401 23.52L9.11005 27.16L10.6301 20.05L10.8701 18.93L10.0001 18.16L4.79005 13.31L11.6501 12.64L12.8501 12.53L13.3101 11.41L16.0001 4.83L18.6901 11.41L19.1501 12.53L20.3501 12.64L27.2101 13.31L22.0001 18.16L21.1701 18.93L21.4101 20.05L22.9301 27.16L17.0701 23.52Z" fill="#001D21" />
</svg>

<svg viewBox="0 0 32 32" fill="none" xmlns="http://www.w3.org/2000/svg"><path d="m30.07 13.39-.63-1.87-8.89-.87L17 2h-2l-3.55 8.65-8.89.87-.63 1.87 6.75 6.24-2 9.23L8.33 30 16 25.21 23.67 30l1.63-1.14-2-9.23 6.77-6.24Zm-13 10.13L16 22.85l-1.06.67-5.83 3.64 1.52-7.11.24-1.12-.87-.77-5.21-4.85 6.86-.67 1.2-.11.46-1.12L16 4.83l2.69 6.58.46 1.12 1.2.11 6.86.67L22 18.16l-.83.77.24 1.12 1.52 7.11-5.86-3.64Z" fill="#001D21"/></svg>
